**kern	**kern	**dynam
*part1	*part1	*part1
*staff2	*staff1	*
*I"Piano	*	*
*clefF4	*clefG2	*
*k[]	*k[]	*
=1	=1	=1
!	!	!LO:DY:a
1.G 1.B-X	1.e-X 1.g 1.b-X 1.ee-X 1.gg	p
=	=	=
2.CC	2r	<
.	4r	.
2.AA-X 2.C 2.G	2.A-X 2.c 2.g	.
=	=	=
2.C 2.F 2.A-X	2.c 2.f 2.a-X	.
2.F 2.A- 2.c	2.f 2.a- 2.cc	.
=	=	=
1.A-X 1.c	1.f 1.a-X 1.cc 1.ff	.
=	=	=
!	!	!LO:DY:a
1.F 1.A-X	1.c 1.d 1.a-X 1.cc 1.ff 1.aa-X	[ mp
=	=	=
1.E 1.G	1.c 1.e 1.g 1.cc 1.ee 1.gg	.
=	=	=
1.CC 1.C	1.c	.
=	=	=
1.BB 1.D 1.G#X 1.B	1.g#X 1.dd 1.ee 1.gg#X	.
=	=	=
1.BBB 1.BB	1.B	.
=||	=||	=||
*k[f#c#g#]	*k[f#c#g#]	*
!	!LO:TX:a:B:t=Tempo I	!
2.ryy	(8AAAL< 8AA<	.
.	8E<	.
.	8A<	.
.	8c#	.
.	8a	.
.	8cc#J)	.
!	!LO:TX:b:i:t=cresc.	!
2.A 2.c#	2.f# 2.a 2.cc# 2.ff#	.
=	=	=
*-	*-	*-
!!!system-decoration: {(s1,s2)}
!!!RDF**kern: < = below
